svgs/speedtop.svg

<svg xmlns="http://www.w3.org/2000/svg" width="192" height="192" fill="none" viewBox="0 0 192 192"><path stroke="#000" stroke-linejoin="round" stroke-width="12" d="M170 97.55c0-40.869-33.131-74-74-74s-74 33.131-74 74c0 33.162 21.813 61.229 51.874 70.635 3.627 1.135 7.126-1.717 7.126-5.518V123.05a6 6 0 0 0-6-6H61l35-60.5 35 60.5h-14a6 6 0 0 0-6 6v39.617c0 3.801 3.499 6.653 7.126 5.518C148.187 158.779 170 130.712 170 97.55Z"/></svg>

<svg width="192" height="192" viewBox="0 0 192 192" fill="none" xmlns="http://www.w3.org/2000/svg">
<path d="M170 97.55C170 56.681 136.869 23.55 96 23.55C55.1309 23.55 22 56.681 22 97.55C22 130.712 43.8134 158.779 73.8743 168.185C77.501 169.32 81 166.468 81 162.667V123.05C81 119.736 78.3137 117.05 75 117.05H61L96 56.55L131 117.05H117C113.686 117.05 111 119.736 111 123.05V162.667C111 166.468 114.499 169.32 118.126 168.185C148.187 158.779 170 130.712 170 97.55Z" stroke="black" stroke-width="12" stroke-linejoin="round"/>
</svg>
